!!!COM: Felix Mendelssohn
!!!CNT: Deutsch
!!!TXO: Deutsch
!!!OTL: Hirtenlied
!!!LYR: Uhland
!!!OPS: Op. 57
!!!ONM: No. 2
!!!ENC: Daniel Alt & Leigh VanHandel
!!!YOR: Sa2mmtliche Lieder fu2r eine Singstimme
!!!YOR: Neu revidirt von Dr. L. Benda, Ausgabe fu2r mittlere Stimme
!!!YOR: Braunschweig. Henry Litolff's Verlag. Boston and New York: Arthur P. Schmidt.
!!!ODT: 1839/
**kern	**silbe
*staff1	*
=1-	=1
*clefG2	*
*k[b-e-a-d-]	*
*M2/4	*
2r	.
=2	=2
4r	.
8r	.
{8c	{O
=3	=3
8cc	Win-
8a-	-ter,
8g	schlim-
16a-	-mer
16g	|
=4	=4
4f	Win-
8c	-ter,
8c	wie
=5	=5
8.f	ist
16g	die
8a-	Welt
8b-	so
=6	=6
4.cc}	klein!}
{8cc	{Du
=7	=7
8dd-	dra2ngst
8cc	uns
8b-	all�
16a-	in
16b-	die
=8	=8
8cc	Tha2-
4g}	-ler,}
8r	.
=9	=9
8r	.
{8cc	uns
8b-	all�
16a-	in
16b-	die
=10	=10
8cc	Tha2-
4a-	-ler,
16f	in
16g	die
=11	=11
8a-	en-
8b-	-gen
8cc	Hu2t-
16cc	-ten
16dd-	hin-
=12	=12
4.ee-	-ein,
8dd-	|
=13	=13
8cc	|
16b-	in
16a-	die
8cc	Hu2t-
16b-	-ten
16g	hin-
=14	=14
4f}	-ein.}
4r	.
=15	=15
*k[b-]	*
4r	.
8r	.
{8c	{O
=16	=16
8cc	Som-
8a	-mer,
8f	scho2-
16d	-ner
16e	|
=17	=17
4d	Som-
8c	-mer,
8c	wie
=18	=18
8f	wird
8a	die
8.cc	Welt
16a	so
=19	=19
4g}	weit!}
8r	.
{8g	{Je
=20	=20
8cc	ho2-
16g	-her
16g	man
8ee	steigt
16dd	auf
16cc	die
=21	=21
4cc	Ber-
8g	-ge,
8g	je
=22	=22
8cc	wei-
8g	-ter
8g	sie
16f	sich
16e	web-
=23	=23
4e}	breit�t.}
8r	.
{8f	{Je
=24	=24
8b-	ho2-
16f	-her
16f	man
8b-	steigt
16dd	auf
16dd	die
=25	=25
4ff	Ber-
8dd	-ge,
8dd	je
=26	=26
8cc	wei-
8a	-ter
8g	sie
16a	sich
16g	ver-
=27	=27
4f}	-breit�t.}
4r	.
=28	=28
2r	.
=29	=29
2r	.
=30	=30
4r	.
8r	.
{8c	{Und
=31	=31
8cc	halt�
8a	ich
8f	dich
16d	in
16e	den
=32	=32
4d	Ar-
8c	-men
8c	auf
=33	=33
8f	frei-
8a	-en
8.cc	Ber-
16a	-ges-
=34	=34
4g}	-ho2h�n:}
8r	.
{8g	{wir
=35	=35
8cc	seh�n
16g	in
16g	die
8ee	wei-
16dd	-ten
16cc	|
=36	=36
4cc	Lan-
8g	-de,
8g	und
=37	=37
8cc	wer-
8g	-den
8g	doch
16f	nicht
16e	ge-
=38	=38
4e}	-seh�n.}
8r	.
{8f	{Wir
=39	=39
8b-	seh�n
16f	in
16f	die
8b-	wei-
8dd	-ten
=40	=40
4ff	Lan-
8dd	-de,
8dd	und
=41	=41
8cc	wer-
8a	-den
8g	doch
16a	nicht
16g	ge-
=42	=42
4f	-seh�n,
8r	.
8c	wir
=43	=43
8cc	wer-
8a	-den
8g	doch
16a	nicht
16g	ge-
=44	=44
[2f	-seh�n.
=45	=45
2f_	|
=46	=46
4f]}	|}
4r	.
==	=
*-	*-
